resources/SLDS/icons/standard/coupon_codes.svg

<svg xmlns="http://www.w3.org/2000/svg" width="100" height="100" viewBox="0 0 100 100"><path fill="#fff" d="M80 42v-9a3 3 0 0 0-3-3H38v2h-2v-2H23a3 3 0 0 0-3 3v9a8 8 0 0 1 0 16v9a3 3 0 0 0 3 3h13v-2h2v2h39a3 3 0 0 0 3-3v-9a8 8 0 0 1 0-16ZM38 64h-2v-4h2Zm0-8h-2v-4h2Zm0-8h-2v-4h2Zm0-8h-2v-4h2Zm13 13.62L49.13 55l-2-2.75L45 55l-1.87-1.33 2-2.9-3.11-1 .69-2.18 3 1v-3.54h2.53v3.52l3-1 .68 2.18-3.11 1Zm15.84 0L65 55l-2-2.75L60.85 55 59 53.62l2-2.9-3.11-1 .68-2.18 3 1v-3.49h2.53v3.52l3-1 .69 2.18-3.11 1Z"/></svg>

<svg xmlns="http://www.w3.org/2000/svg" width="100" height="100" viewBox="0 0 100 100"><path d="M80,42V33a3,3,0,0,0-3-3H38v2H36V30H23a3,3,0,0,0-3,3v9a8,8,0,0,1,0,16h0v9a3,3,0,0,0,3,3H36V68h2v2H77a3,3,0,0,0,3-3V58a8,8,0,0,1,0-16ZM38,64H36V60h2Zm0-8H36V52h2Zm0-8H36V44h2Zm0-8H36V36h2ZM51,53.62,49.13,55l-2-2.75L45,55l-1.87-1.33,2-2.9-3.11-1,.69-2.18,3,1V45.05h2.53v3.52l3-1,.68,2.18-3.11,1Zm15.84,0L65,55l-2-2.75L60.85,55,59,53.62,61,50.72l-3.11-1,.68-2.18,3,1V45.05h2.53v3.52l3-1,.69,2.18-3.11,1Z" fill="#fff"/></svg>
